X:141
T:I Have a Wife of My Own
M:9/8
L:1/8
K:Edor
"Em"EFE G2A B3 | "Em"EFE G2B "D"AFD | "Em"EFE G2A Bcd | "D"DFA dcB AFD :|
"G"g2g "D"fgf "Em"e3 | "Em"EFE G2A BGE | "G"g2g "D"faf d3 | "D"DFA dcB AFD | 
"G"g2g "D"fgf "Em"e3 | "Em"EFE G2A BGE | "G"g2g "D"afd "G"g3 | "D"DFA dcB AFD |]

